svg/l/IQ.svg

<svg width="32" height="24" viewBox="0 0 32 24" fill="none" xmlns="http://www.w3.org/2000/svg">
<mask id="mask0" mask-type="alpha" maskUnits="userSpaceOnUse" x="0" y="0" width="32" height="24">
<rect width="32" height="24" fill="white"/>
</mask>
<g mask="url(#mask0)">
<path fill-rule="evenodd" clip-rule="evenodd" d="M0 0V24H32V0H0Z" fill="#F7FCFF"/>
<mask id="mask1" mask-type="alpha" maskUnits="userSpaceOnUse" x="0" y="0" width="32" height="24">
<path fill-rule="evenodd" clip-rule="evenodd" d="M0 0V24H32V0H0Z" fill="white"/>
</mask>
<g mask="url(#mask1)">
<path fill-rule="evenodd" clip-rule="evenodd" d="M0 0V8H32V0H0Z" fill="#BF2714"/>
<path fill-rule="evenodd" clip-rule="evenodd" d="M0 16V24H32V16H0Z" fill="#272727"/>
<path fill-rule="evenodd" clip-rule="evenodd" d="M5.33662 12.8112C6.24623 14.1166 5 15 5 15C5 15 6.08949 15 6.50674 14.1256H15.4241V12.1998C15.4241 12.1998 15.2376 11.275 14.4436 11.275C13.6495 11.275 13.4706 12.1998 13.4706 12.1998H10.3341L13.3688 9.52087L12.7788 9L9.40801 11.9756V12.6065H14.1931V12.2351C14.1931 12.2351 14.22 12.0201 14.4436 12.0201C14.6671 12.0201 14.6127 12.2351 14.6127 12.2351V13.0284H8.58261V11.9437L7.92968 12.2351V13.0284C7.92968 13.0284 7.13001 12.8112 6.62466 12.8112C6.11931 12.8112 6.08949 12.2351 6.08949 12.2351L5.33662 12.8112ZM17.4466 12.8853L17.9356 14.1031H15.9896V9.21438L16.8105 9.47713V12.8853H17.4466ZM26.511 12.8853L27 14.1031H25.054V9.21438L25.8749 9.47713V12.8853H26.511ZM24.1015 9.26496L23.5945 9.60815V12.8819H23.078V10.2563L22.2271 10.7468V12.8819H21.6562V11.3995L21.0094 11.8158V12.2182C21.0094 12.2182 19.7653 12.304 19.7653 14.0628H24.0965L24.1015 9.26496ZM7.49178 14.9656C7.64822 14.9656 7.77504 14.8537 7.77504 14.7156C7.77504 14.5775 7.64822 14.4655 7.49178 14.4655C7.33534 14.4655 7.20852 14.5775 7.20852 14.7156C7.20852 14.8537 7.33534 14.9656 7.49178 14.9656ZM21.9145 9.64166C21.6946 9.93158 21.0271 9.64166 21.0271 9.64166L22.9198 9.42239C22.7243 9.80398 21.9145 9.64166 21.9145 9.64166Z" fill="#009C4E"/>
</g>
</g>
</svg>

<svg width="32" height="24" fill="none" xmlns="http://www.w3.org/2000/svg">
  <mask id="a" maskUnits="userSpaceOnUse" x="0" y="0" width="32" height="24">
    <path fill="#fff" d="M0 0h32v24H0z"/>
  </mask>
  <g mask="url(#a)">
    <path fill-rule="evenodd" clip-rule="evenodd" d="M0 0v24h32V0H0z" fill="#F7FCFF"/>
    <mask id="b" maskUnits="userSpaceOnUse" x="0" y="0" width="32" height="24">
      <path fill-rule="evenodd" clip-rule="evenodd" d="M0 0v24h32V0H0z" fill="#fff"/>
    </mask>
    <g mask="url(#b)" fill-rule="evenodd" clip-rule="evenodd">
      <path d="M0 0v8h32V0H0z" fill="#BF2714"/>
      <path d="M0 16v8h32v-8H0z" fill="#272727"/>
      <path d="M5.337 12.811C6.247 14.117 5 15 5 15s1.09 0 1.507-.874h8.917V12.2s-.186-.925-.98-.925c-.795 0-.973.925-.973.925h-3.137l3.035-2.68-.59-.52-3.371 2.976v.63h4.785v-.37s.027-.216.25-.216c.224 0 .17.215.17.215v.793h-6.03v-1.084l-.653.291v.793s-.8-.217-1.305-.217c-.506 0-.536-.576-.536-.576l-.752.576zm12.11.074l.489 1.218H15.99V9.214l.82.263v3.408h.637zm9.064 0L27 14.103h-1.946V9.214l.82.263v3.408h.637zm-2.41-3.62l-.506.343v3.274h-.517v-2.626l-.85.49v2.136h-.572V11.4l-.647.416v.402s-1.244.086-1.244 1.845h4.331l.006-4.798zm-16.61 5.7c.157 0 .284-.111.284-.25 0-.137-.127-.25-.283-.25-.157 0-.283.113-.283.25 0 .139.126.25.283.25zm14.424-5.323c-.22.29-.888 0-.888 0l1.893-.22c-.196.382-1.006.22-1.006.22z" fill="#009C4E"/>
    </g>
  </g>
</svg>
